X:1
T:The Brooklyn Theater Fire
M:6/8
L:1/8
K:F
 c/2c/2| cAF FC^C| D B2 z2 D/2D/2| CEG CEG| A3 z2 c| cAF FC^C| D B2 z2 D|\
C-E G CEG| F3 z3| d2 d/2d/2 BFd| c3- A2 =B| =B B3/2 A/2 GAB| c3 z2 d|\
 c2 A FC^C| D B2 z2 D| CEG CEG| F3- F2||
